Golf.svg

<svg version="1.1" id="master" xmlns="http://www.w3.org/2000/svg" xmlns:xlink="http://www.w3.org/1999/xlink" x="0px" y="0px"
	 width="24px" height="24px" viewBox="0 0 24 24" enable-background="new 0 0 24 24" xml:space="preserve">
<rect fill="none" width="24" height="24"/>
<path d="M12,16c3.87,0,7-3.13,7-7s-3.13-7-7-7S5,5.13,5,9S8.13,16,12,16z M12,4c2.76,0,5,2.24,5,5s-2.24,5-5,5s-5-2.24-5-5
	S9.24,4,12,4z M10,7c0.552,0,1,0.448,1,1s-0.448,1-1,1S9,8.552,9,8S9.448,7,10,7z M14,7c0.553,0,1,0.448,1,1s-0.447,1-1,1
	s-1-0.448-1-1S13.447,7,14,7z M12,5c0.553,0,1,0.448,1,1s-0.447,1-1,1c-0.552,0-1-0.448-1-1S11.448,5,12,5z M7,19h2c1.1,0,2,0.9,2,2
	v1h2v-1c0-1.1,0.9-2,2-2h2v-2H7V19z"/>
</svg>

<svg version="1.1" id="master" xmlns="http://www.w3.org/2000/svg" xmlns:xlink="http://www.w3.org/1999/xlink" x="0px" y="0px"
	 width="24px" height="24px" viewBox="0 0 24 24" enable-background="new 0 0 24 24" xml:space="preserve">
<rect fill="none" width="24" height="24"/>
<path d="M12,2C8.13,2,5,5.13,5,9s3.13,7,7,7s7-3.13,7-7S15.87,2,12,2z M10,9C9.448,9,9,8.552,9,8s0.448-1,1-1s1,0.448,1,1
	S10.552,9,10,9z M12,7c-0.552,0-1-0.448-1-1s0.448-1,1-1c0.553,0,1,0.448,1,1S12.553,7,12,7z M14,9c-0.553,0-1-0.448-1-1
	s0.447-1,1-1s1,0.448,1,1S14.553,9,14,9z M7,19h2c1.1,0,2,0.9,2,2v1h2v-1c0-1.1,0.9-2,2-2h2v-2H7V19z"/>
</svg>
